X:145
T:Lancaster Lasses
R:Minuet
O:England
M:3/4
A:Lancashire
B:Winder
K:DDor
A2 | d3 c d2 | A4 d2 | e3 d e2 | A4 e2 |\
f3 g f2 | e4 d2 | ^c3 d e2 | A4 e2 |\
f3 e f2 | A4 f2 | g3 f g2 | e2 f2 g2 |\
a3 g f2 | c f3 e2 | [1 d6 | d6 :| [2 d6 | d3 \
|:e fg| a3 c c2 | c3 d c2 | c6 | B4 g2 |\
g3 _B B2 | _B3 c B2 | _B6 | A4 f2 |\
f3 g f2 | e3 f e2 | d3 e ^c2 | d3 e fg |\
a3 g f2 | c f3 e2 | [1 d6 | d3 :| [2 d6 | d6 ||**
